X: 7
T: The Cameronian
R: reel
M: 4/4
L: 1/8
K: Dmaj
|:A2FA DAFA|GE (3EDE GEdB|A2FA DAFA|1 GBAG FDdB:|2 GBAG FD (3EFG:||
|:Addc d3A|(3Bcd ef gfed|(3cBA eA fAef|defd gfed|
fgaf bage|dfec defg|(3agf ge fdec|dABG FAdB:||


Tune 284	Setting 27523

